X:1
T:Nocturn Op.55-2
T:NOCTURNE.
T:F.Chopin,Op.55.No.2
C:F.Chopin
%%score { ( 1 2 4 5 ) | 3 }
L:1/8
Q:3/8=72
M:12/8
K:Eb
V:1 treble nm="Piano" snm="Pno."
V:2 treble 
V:4 treble 
V:5 treble 
V:3 bass 
V:1
!f!"^Lento sosutenuto" (b6[Q:3/8=60]{cd[Q:3/8=64]e} !trill(!Td6[Q:3/8=68][Q:3/8=70][Q:3/8=60][Q:3/8=50]{cd} | %1
[Q:3/8=72] e3 a3 g3 =B3 | c3- c2 d d2 e g2 f | d6 e3)!>(! (=e3 | f3!>)! _e2 d c3[Q:3/8=70] d3 | %5
[Q:3/8=50] e6[Q:3/8=72]!>(! B3 c3 |[Q:3/8=64] d3!>)![Q:3/8=72] c2 B =A6[Q:3/8=45][Q:3/8=50] | %7
[Q:3/8=72] G6)[Q:3/8=68] (_A3[Q:3/8=64] c2 B | %8
!f![Q:3/8=72] g2 a[Q:3/8=64] (4:3:4=abd'c'[Q:3/8=72] b3[Q:3/8=70] d3 | %9
[Q:3/8=72] e3 a3 g3[Q:3/8=70] =B3 |[Q:3/8=72] c3 d3 (e3-[Q:3/8=60] e2[Q:3/8=72][Q:3/8=40] g/>)f/ | %11
[Q:3/8=70] d6[Q:3/8=68] e3-)[Q:3/8=64] e2[Q:3/8=52] (E |!mf![Q:3/8=72] _d6- d3 c2 =B | %13
 c2 f e3 _d3[Q:3/8=68] c2 =B |[Q:3/8=72] c3) (e6 =d2 ^c |[Q:3/8=72] d2 g f3 e3[Q:3/8=68] d2 ^c | %16
[Q:3/8=72]"_cresc." d3) (a6 a3- | a3!mf! a6[Q:3/8=60] a3[Q:3/8=68] |!p![Q:3/8=72] g6 =d3 g3 | %19
 e3 d2 c e6 | d3 f2 e d3 =A2 d | B3 =A2 G[Q:3/8=68]!mp! (g6-)[Q:3/8=64] | %22
[Q:3/8=72] g3 d2 e f3 g2 d | e3 d2 c c'6 | %24
!f! b3 =A2 B"^10" (5:3:5_cD[Q:3/8=70]_A=A[Q:3/8=68]=c(5:3:5B[Q:3/8=64]^cd[Q:3/8=60]ag | %25
[Q:3/8=50] f/=e/[Q:3/8=72]_e) z z2 z[Q:3/8=70] z2 z[Q:3/8=60] (e2 d |!p![Q:3/8=72] _d3 e2 f c3 d3 | %27
!<(! =B3 c2 =d e3 d2 e | g2!<)! f ga=B!mp! c3!>(! e2 d | %29
 =B3 c2 d!>)!!p! !>!e3[Q:3/8=58][Q:3/8=64][Q:3/8=60] f2 g) |[Q:3/8=72] (a3- a2 g ^f3!p! g3) | %31
!p! (!>!_g3-[Q:3/8=40][Q:3/8=52][Q:3/8=72] g2 f =e3!p! f3) | %32
!p! (!>!_f3-[Q:3/8=40][Q:3/8=52][Q:3/8=72] f2 e =d3!p! =c2 d) | %33
[Q:3/8=72]!mp!"_cresc." (e3[Q:3/8=70] T=e3{^de} Tf3!mf! !trill(!T^f3{^ef} | %34
[Q:3/8=72] (7:6:7ga=ab=bd'c' _b3[Q:3/8=50] d3) |[Q:3/8=72] (7:6:7(e=ef^fgba g3[Q:3/8=50] =B3 | %36
 c3[Q:3/8=72] d3 (e3-[Q:3/8=60] e2[Q:3/8=72][Q:3/8=40] g/>)f/ | %37
[Q:3/8=70] d6[Q:3/8=58][Q:3/8=70] e3-)[Q:3/8=60] e2[Q:3/8=50] (E |!p![Q:3/8=72] _d6- d3 c2 =B | %39
 c2 f e3 _d3 c2 =B | %40
!p! c6)[Q:3/8=40][Q:3/8=52][Q:3/8=70][Q:3/8=40][Q:3/8=52][Q:3/8=72] (!arpeggio!e3 =d2 ^c | %41
!p! d2 =g f3 _e3 d2 ^c |!mp!"_cresc." d3) (a6!mf! a3- | a3 a6[Q:3/8=64] a3-[Q:3/8=68] | %44
[Q:3/8=72]!>(! a3 _g2 f!>)!!mp! f2 =e f2 =g |!>(! g2 f _e2 c!>)!!f![Q:3/8=60] A6 | %46
[Q:3/8=72]!>(! [G,G]3)!>)!!p![Q:3/8=60] z2[Q:3/8=50] (E[Q:3/8=72] _d3 c2 =B | %47
 c2"_cresc." f[Q:3/8=60] e3[Q:3/8=64][Q:3/8=68][Q:3/8=72]!<(! _d3 c2 =B!<)! | %48
!mp! c6)[Q:3/8=40][Q:3/8=52][Q:3/8=70][Q:3/8=40][Q:3/8=52][Q:3/8=72]!p!"_cresc." (!arpeggio!e3 =d2 ^c | %49
 d2 g[Q:3/8=60] f3[Q:3/8=64][Q:3/8=68][Q:3/8=72] _e3 d2 ^c |!mp!"_cresc." d3) a6 a3- | %51
[Q:3/8=40] !trill(!Ta3[Q:3/8=72] a6 a3- | a3 g2 f[Q:3/8=60]!mp! !trill(!Tf2[Q:3/8=72] =e f2 =g | %53
[Q:3/8=50]!<(! !trill(!Tg2[Q:3/8=52] f[Q:3/8=70] e2 d[Q:3/8=40]!<)![Q:3/8=72]!f! (c'2 f[Q:3/8=60] g2[Q:3/8=52] d | %54
[Q:3/8=48]!>(! e12)[Q:3/8=68][Q:3/8=70]!>)![Q:3/8=68] |!p! (!>!e6"_dim." _d3- d2 e | %56
!pp! _c6 _c'3-[Q:3/8=60] c'2- c'/b/ | %57
[Q:3/8=64] b3)[Q:3/8=60]!mf! (!>!b'2!>(! =a' (4:3:4_a'bg'f' (4:3:4e'gd'c'!>)! | %58
!mp!!>(!"_dim." b3) b3 b3 b3 | b3 b3 b3 (5:3:5(AGAB!>!F | %60
"^rallent"[Q:3/8=56] (5:3:5BABc!>!E[Q:3/8=54] (5:3:5cBcd!>!D[Q:3/8=52] (5:3:5dcde!>!C[Q:3/8=50] (5:3:5edef!>!B, | %61
[Q:3/8=48] !arpeggio![FBf]2) z!>)![Q:3/8=46]!pp! ([G_deg]3[Q:3/8=44] [Aca]3 [Ec]3) | %62
[Q:3/8=50]!>(! ([Ac] [GB]2)!>)!!pp! z2 z!<(! (GBe[Q:3/8=46] gb[Q:3/8=40]a' | %63
[Q:3/8=50] g'3)!<)! z2 z!p![Q:3/8=45]!<(! (!>![EB]3 !>![DB]3 | %64
!mp! !>![FB]6)!<)! z2 z[Q:3/8=35] [G,EG]3 | [G,EG]12- | [G,EG]3 z2 z z6 |] %67
V:2
 x4- xx/x/ (3x/x/x/(3x/x/x/(3x/x/x/ (3x/x/x/(3x/x/x/(3x/!trill)!x/x/ | x12 | x12 | x6 x3 (B3 | %4
 B2 A- A3- A2 A) AGz/(D/ | F/=E/ _E2) (G6 _G3 | %6
 (4:3:4^F=G=AB (D3-) D2) (C/D/ (8:6:8.E/.D/.=F/.E/.D/.E/.C/.D/) | (=B,3 _B,3-) B,3 z z2 | %8
 x6 z2 (_A AG)z/(F/ | FE) z z3 z2 (F FE)z/(D/ | DC) z z3 z2 (=E/F/ G/F/ c2-) | %11
 c2 (c cB)z/(A/ AG) z z2 x | x12 | x12 | x12 | x12 | x12 | x12 | x12 | x12 | x12 | x12 | x12 | %23
 x12 | x12 | x12 | x12 | x12 | x12 | x6 z2!<(! c{=Bcd} c2 _B- | B!<)!A!p! (e4- e^cd) z (ed-) | %31
 d(_d{cde} d4- d=Bc) z (dc-) | c(_c{Bc_d} c4- c2 B =A2 _A) | (AG) z z3 x6 | %34
 x6 z2 (._A (7:6:7.A/.G/.B/.A/.A/.G/.F/ | %35
 .F/.E/) z z z2 z z2 (.=F (7:6:7.F/.=E/.G/.^F/.=F/.E/._E/ | %36
 .D/.C/) z z z2 z z2 (.=E/.F/ .G/.F/ c2-) | c2 (.c/.B/ .=A/.B/.G/._A/.E/.F/ .G) x x4 | x12 | x12 | %40
 z2 _G{FGA} G2- G/F/ F6- | F2 z z2 z z6 | d12 | _d12- | d6 c6 | %45
 c3 c2 (E- E/"^3".F/.C/ .D/"^3".E/.B,/ .C/"^3".D/.A,/ .B,/"^3".C/.F,/) | x6 z6 | %47
 z2 z z/ (.A/.G/._G/.F/._F/ E6-) | E2 _G{FGA} G2- G/F/ F6 | z2 z z/ (.B/.=A/._A/.G/.^F/ =F6) | %50
 d12 | _d12- | d6 c6 | c3{=Bc} c'2 c' !arpeggio!A3- A2 A |{/A} G12 | _G12- | G6 x6 | x12 | %58
 (gae (5:3:5fefgd (5:3:5edefc (5:3:5dcdeB | (5:3:5dcdeB (5:3:5cBcdA (5:3:5BABcG) x3 | x12 | x12 | %62
 E3 x9 | x12 | x12 | x12 | x12 |] %67
V:3
 z6!ped! (B,,,B,,A, CB,A!ped-up! |!ped! GEB, G,B,,E,,)!ped-up!!ped! (G,,D,F, A,G,F!ped-up! | %2
!ped! ECA, F,E,A,,)!ped-up!!ped! (=A,,F,C[K:treble] FEc)!ped-up! | %3
[K:bass]!ped! (B,,F,A, DGF)!ped-up!!ped! (E,,B,,G,)!ped-up!!ped! (C,_DC)!ped-up! | %4
!ped! (F,A,C[K:treble] GF!ped-up!c)[K:bass]!ped! (G,,D,F, =B,G,!ped-up!!<(!F) | %5
!ped! (C,,G,,C, E,G,!<)!!ped-up!E)!ped! (E,,B,,E,!ped-up!!ped! B,_G,E)!ped-up! | %6
!ped! (D,,D,=G,!ped-up!!ped! B,GD,)!ped-up!!ped! (D,,D,^F, C!ped!D,!ped-up!^F,) | %7
!ped! (G,,!<(!^C,E, D,^F,G,)!ped-up!!ped! (=F,,D,_A, =A,!ped-up!!ped!B,[D_A])!ped-up!!<)! | %8
!ped! (E,,B,,G, CB,G)!ped-up!!ped! (F,,D,A, C!ped-up!!ped!B,A)!ped-up! | %9
!ped! (G,,E,G,[K:treble] B,!ped-up!!ped!EB)[K:bass]!ped-up!!ped! (G,,D,F, A,!ped-up!!ped!G,F)!ped-up! | %10
!ped!!<(! (A,,E,A,[K:treble] F,E!ped-up!!ped!c)!<)![K:bass]!ped-up!!ped! (=A,,F,D[K:treble] C_E!ped-up!!ped!e)!ped-up! | %11
[K:bass]!ped! (B,,F,_A, E!ped-up!!ped!D!>(!F)!ped-up!!ped! (E,,B,,E, G,B,!>)!!ped-up!!ped![I:staff -1]E)!ped-up! | %12
[I:staff +1] (G,,=D,!ped-up!!ped!E, B,_DE) (E,,E,B,!ped-up!!ped! DEG) | %13
!ped! (A,,E,A, CEA)!ped-up!!ped! (G,,=D,E,!ped-up!!ped! B,_DE)!ped-up! | %14
!ped! (A,,_G,A, CE_G)!ped-up!!ped! (=A,,=E,F,!ped-up!!ped! C_EF)!ped-up! | %15
!ped! (B,,=E,!ped-up!!ped!F, B,DF)!ped-up!!ped! (=A,,=E,!ped-up!!ped!F, C_EF)!ped-up! | %16
!ped! (B,,F,_A, EDA)!ped-up!!ped! (_C,F,A, E_DA)!ped-up! | %17
!ped! (=C,F,A, _DCA)!ped-up!!ped! (_D,F,!>(!A, C=B,A)!ped-up!!>)! | %18
!ped! (=D,F,G, =B,FG) (G,,F,G, B,FG)!ped-up! | %19
!ped! (C,,G,,C, E,^F,G,!ped-up!!ped! GEC G,C,=A,,)!ped-up! | %20
!ped! (D,,D,G, C!ped-up!!ped!DG)!ped-up!!ped! (D,,D,^F, CD^F)!ped-up! | %21
!<(!!ped! (G,,D,G, B,!ped-up!!ped!^CD)!ped!!<)![I:staff -1] (BG[I:staff +1]D B,G,D,)!ped-up! | %22
!ped! (G,,D,G, =B,FG)!ped-up! (G,,D,G, B,FG) | %23
!<(!!ped! (C,,G,,C, E,G,E)!ped-up!!ped! (=A,,^F,D[K:treble] C_Ge)!ped-up!!<)! | %24
[K:bass]!ped! (B,,,B,,E, _A,E_A!ped-up!!ped! =GFB, A,F,B,,)!ped-up! | %25
!ped! (E,,B,,G,!>(! CB,G!ped-up!!ped! DFE!ped-up!!ped! B,G,B,,)!ped-up!!>)! | %26
!ped! (F,,_D,F,!ped-up!!ped! B,A,!ped!A!ped-up! F_DA, F,D,F,,)!ped-up! | %27
!ped! (G,,=D,F,!ped! A,!ped-up!G,F)!ped-up!!ped! (C,,C,G, CEG)!ped-up! | %28
!ped! (A,,C,F, B,!ped!A,!ped-up!G!ped! F!ped-up!DA, F,D,F,,)!ped-up! | %29
!ped! (G,,D,F,!ped! A,!ped-up!G,F)!ped-up!!ped! (C,G,C EGG,)!ped-up! | %30
!ped! (C,E,!>(!C A,EE,)!ped-up!!ped! (C,D,!>)!D)!ped-up!!ped! (=B,,D,D)!ped-up! | %31
!ped! (_B,,B,!>(!_G,[K:treble] _DB,B)!>)![K:bass]!ped-up!!ped! (B,,C,C) (=A,,C,C)!ped-up! | %32
!ped! (_A,,A,!>(!_F, _CA,A)!ped-up!!ped! (B,,=F,!>)!A,[K:treble]!<(! D!ped-up!!ped!B,B)!ped-up!!<)! | %33
[K:bass]!ped! (B,,G,B,[K:treble] _D!ped-up!!ped!C[B,B])[K:bass]!ped-up!!ped! (B,,A,_C-!ped-up!!ped! [CE][K:treble][B,=D][A,B])!ped-up! | %34
[K:bass]!ff!!ped! (E,,B,,G, CB,G)!ped-up!!ped! (F,,D,A, CB,!ped-up!!ped!A)!ped-up! | %35
!ped! (G,,E,G, CB,G)!ped-up!!ped! (G,,D,F, A,!ped!G,!ped-up!F)!ped-up! | %36
!ped! (A,,E,A,[K:treble] F!ped-up!!ped!Ec)[K:bass]!ped-up!!ped! (=A,,F,D[K:treble] C!ped-up!!ped!_E_e) |!ped-up! %37
[K:bass]!ped! (B,,,B,,!<(!F, _A,DB,,)!<)!!ped-up!!ped!!>(! E,,B,,E, G,B,[I:staff -1]E!ped-up!!>)! | %38
"^dolce"!ped![I:staff +1] (G,,=D,E, F,E,_D) (G,,=D,E, F,E,_D)!ped-up! | %39
!ped! (A,,=D,E, F,E,!<(!C) (G,,=D,E, F,E,_D)!ped-up!!<)! | %40
!>(!!ped! (A,,=D,E, CA,E)!>)!!ped-up!!ped! (=A,,=E,F, =G,F,_E)!ped-up! | %41
!<(!!ped! (B,,=E,F, G,F,D) (=A,,=E,F, G,F,_E)!ped-up!!<)! | %42
!ped! (B,,F,_A, C!ped-up!!ped!B,E DGF!ped-up!!ped! DA,F,)!ped-up! | %43
!f!!ped! (_C,F,A,[K:treble] E!ped-up!!ped!_D_G!ped-up!!ped!"^dim." FBA FDA,)!ped-up! | %44
[K:bass]!ped! (B,,B,_G,[K:treble] _DB,B)[K:bass]!<(!!ped-up!!ped! (B,,=G,C G,CG)!ped-up!!<)! | %45
!ped! (A,,A,F, CA,A)!ped-up!!ped! (B,,,F,,B,, F,B,,F,,)!ped-up! | %46
!ped! E,,B,,E, G,B,[I:staff -1]E!ped-up!!ped![I:staff +1] G,,=D,E, F,E,_D!ped-up! | %47
!ped! (A,,=D,E, F,E,C)!ped-up!!ped! (G,,=D,E, F,E,_D)!ped-up! | %48
!>(!!ped! (A,,=D,!ped-up!!ped!E, CA,E)!>)!!ped-up!!ped! (=A,,=E,F, =G,F,_E)!ped-up! | %49
!ped! (B,,=E,F, G,F,D)!ped-up!!ped! (=A,,=E,F, =G,F,_E)!ped-up! | %50
!ped! (B,,F,_A, C!ped-up!!ped!B,E DGF!ped-up!!ped! DA,F,)!ped-up! | %51
!f!!ped! (_C,F,A,[K:treble] E!ped-up!!ped!_D_G!ped-up!!ped!"^dim." FBA FDA,)!ped-up! | %52
[K:bass]!ped! (B,,B,_G,[K:treble] _DB,B)[K:bass]!ped-up!!ped! (B,,=G,C G,CG)!ped-up! | %53
!ped! (A,,A,F, FCA)!ped-up!!ped! (B,,,B,,A, DB,F)!ped-up! | %54
!ped! (E,,B,,E, G,!ped!C!ped-up!B,!ped-up!!ped! GEB, G,E,B,,)!ped-up! | %55
!ped! (E,,B,,E, _G,!ped!_C!ped-up!B,!ped-up!!ped! _GEB, G,E,B,,)!ped-up! | %56
!ped! (E,,=A,,_C, =A,!ped-up!!ped!_D_C!ped-up!!ped!!<(! =A_GC =A,_C,=A,,)!ped-up! | %57
!ped! (E,,!<)!B,,E, =G,!ped-up!!ped!=CB,!ped-up!!ped! GEB, G,E,B,,)!ped-up! | %58
!ped! (E,,B,,D, A,!ped!C!ped-up!B,!ped-up!!ped! ADB, A,D,B,,)!ped-up! | %59
!ped! (E,,B,,D, A,!ped!C!ped-up!B,!ped-up!!ped! ADB, A,D,B,,)!ped-up! | %60
!ped! (E,,B,,D, A,CB,!ped-up!!ped! ADB,!ped-up!!ped! A,D,B,,)!ped-up! | %61
!ped! E,,2 z [E,B,E]3!ped-up!!ped! [E,CE]3 [E,A,E]3!ped-up! | %62
"^a tempo" (E,,,!ped!E,,B,, G,B,F!ped-up!!ped! EB,G, E,B,,E,,!ped-up! | %63
!ped! B,,,3) z2 z[K:treble] ([B,G]3!ped-up!!ped! [B,F]3!ped-up! | %64
 [B,A]6) z2 z[K:bass]!f!!ped-up!!ped! [E,,B,,]3 | [E,,B,,E,]12- | [E,,B,,E,]3 z2 z z6 |] %67
V:4
 x12 | x12 | x12 | x12 | x12 | x12 | x12 | x12 | x12 | x12 | x12 | x12 | x12 | x12 | x12 | x12 | %16
 x12 | x12 | x12 | x12 | x12 | x12 | x12 | x12 | x12 | x12 | x12 | x12 | x12 | %29
 x8 x/4x/4x/4x/4 x2 x | x12 | x x/4x/4x/4x/4 x4- x x5 | x x/4x/4x/4x/4 x4- x2 x4 | x12 | x12 | %35
 x12 | x12 | x12 | x12 | x12 | z2 x/4x/4x/4x/4 x2-x/x/4x/4- x6- | x2 x10 | x12 | x12 | x12 | x12 | %46
 x12 | x12 | x2 x/4x/4x/4x/4 x2-x/x/4x/4- x6 | x12 | x12 | %51
 (9:6:9x/x/x/x/x/x/x/x/x/ (9:6:9x/x/x/x/x/x/x/x/x/ (9:6:9x/x/x/x/x/x/x/x/x/ (9:6:9x/x/x/x/x/x/x/x/x/ | %52
 (9:6:9x/x/x/x/x/x/x/x/x/ (9:6:9x/x/x/x/x/x/x/x/!trill)!x/ (9:6:9x/x/x/x/x/x/x/x/x/ (9:6:9x/x/x/x/x/x/x/x/!trill)!x/ | %53
(3x/x/x/x/4x/4x/4x/4x/4x/4!trill)!x/4x/4x2x/>x/- x3- x2 x | x12 | x12 | x12 | x12 | x12 | x12 | %60
 x12 | x12 | x12 | x12 | x12 | x12 | x12 |] %67
V:5
 x12 | x12 | x12 | x12 | x12 | x12 | x12 | x12 | x12 | x12 | x12 | x12 | x12 | x12 | x12 | x12 | %16
 x12 | x12 | x12 | x12 | x12 | x12 | x12 | x12 | x12 | x12 | x12 | x12 | x12 | x12 | x12 | x12 | %32
 x12 | %33
 x3 (3x/ x/ x/ (3x/ x/ x/ (3x/ x/ x/ (3x/ x/ x/ (3x/ x/ x/ (3x/ x/ x/ (3x/ x/ x/ (3x/ x/ x/ (3x/ !trill)!x/ x/ | %34
 x12 | x12 | x12 | x12 | x12 | x12 | x12 | x12 | x12 | x12 | x12 | x12 | x12 | x12 | x12 | x12 | %50
 x12 | x12 | x12 | x12 |x<x- x4- x6 | x12 | x12 | x12 | x12 | x12 | x12 | x12 | x12 | x12 | x12 | %65
 x12 | x12 |] %67

